!!!!SEGMENT: pl-sa--548-a-ix-28--004_anonim--polonez.krn
!!!cenid: 18xx:427
!!!COM: Anonim
!!!COM-rismID:
!!!CDT:
!!!CNT:
!!!OTL: Polonez
!!!PDT:
!!!AGN: Secular; Polonaise
!!!SMS-siglum: PL-SA
!!!SMS-shelfmark: 548/A IX 28
!!!SMS-shelfwork: 004 W
!!!SMS-variant:
!!!SMS-altvar:
!!!NIFC-rismSourceID: 1001068951
!!!NIFC-islandoraID:
!!!URL-pdf-islandora:
!!!URL-scan: https://bc.bdsandomierz.pl/dlibra/publication/1440/edition/1408/content @EN{Scan on Cyfrowa Biblioteka Diecezjalna w Sandomierzu} @PL{Skany w portalu Cyfrowa Biblioteka Diecezjalna w Sandomierzu}
!!!ONB-nifc: Str. 8 – str. 9 (s. 1)
!!!AIN: 1 piano
!!!key:
**kern	**kern
*part1	*part1
*staff2	*staff1
*Ipiano	*Iempty
*I"Piano	*
*I'P-no	*
*clefF4	*clefG2
*k[f#c#]	*k[f#c#]
*D:	*D:
*M3/4	*M3/4
=1	=1
8DD/L	8.f#/ 8.a/ 8.dd/L
8FF#/J 8AA/ 8D/	.
.	16a/Jk
*rep	*
8DD/L	8f#/L
8FF#/J 8AA/ 8D/	8a/
*Xrep	*
*rep	*
8DD/L	8dd/
8FF#/J 8AA/ 8D/	8ff#/J
*Xrep	*
=2	=2
*rep	*
8DD/L	8.dd\ 8.ff#\ 8.aa\L
8FF#/J 8AA/ 8D/	.
.	16ff#\Jk
8DD/L	8dd\L
.	8qee/
8FF#/J 8AA/ 8D/	16dd\L
.	16cc#\JJ
8DD/L	16dd\LL
.	16ee\
8FF#/J 8AA/ 8D/	16ff#\
*Xrep	*
.	16dd\JJ
=3	=3
!	!LO:SIC:o:s=:v:caudy po prawej stronie takt 3-4
8AA/L	8.a\L 8.cc#\ 8.ee\ 8.gg\
8C#/J 8E/ 8A/	.
.	16ee\Jk
*rep	*
8AA/L	(16dd\LL
.	16cc#\
8C#\J 8E\ 8A\	16b\
*Xrep	*
.	16a/JJ)
*rep	*
8AA/L	(16g#X/LL
.	16a/
8C#\J 8E\ 8A\	16b\
*Xrep	*
.	16cc#\JJ)
=4	=4
.	8qee/
8DD/L	16dd\LL
.	16cc#\
8D/J 8F#/ 8A/	16dd\
.	16ee\JJ
*rep	*
8DD/L	16ff#\LL
.	16cc#\
8D\J 8F#\ 8A\	16dd\
*Xrep	*
*Xrep	*
.	16b\JJ
8C#/L 8E/ 8A/	4a/
8AA/J	.
=5	=5
!	!LO:SIC:o:s=:v:caudy po prawej stronie takt 5-7
8D\L	8.aa\L
8D\J 8F#\ 8A\ 8c#\ 8d\	.
.	16ff#\Jk
!	!LO:SIC:o:s=:v:8\right
*rep	*
8D\L	8dd\L
!	!LO:SIC:o:s=:v:8\right
8D\J 8F#\ 8A\ 8c#\ 8d\	8dd\TJ
*Xrep	*
!	!LO:SIC:o:s=:v:8\right
*rep	*
8D\L	8.bb\L
8D\J 8F#\ 8A\ 8c#\ 8d\	.
.	16aa\Jk
*Xrep	*
!!LO:LB:g=original
=6	=6
!	!LO:SIC:o:s=:v:caudy po prawej stronie cały takt
8D\L	16aa\LL
.	16gg#X\
8F#\J 8A\ 8d\	16aa\
.	16ff#\JJ
*rep	*
8D\L	8dd\L
8F#\J 8A\ 8d\	16ff#\L
*Xrep	*
.	16ee\JJ
*rep	*
8D\L	16ggn\LL
.	16ff#\
8F#\J 8A\ 8d\	16ee\
*Xrep	*
.	16dd\JJ
=7	=7
!	!LO:SIC:o:s=:v:16\right
8AA\L 8A\	16dd\LL
!	!LO:SIC:o:s=:v:16\right
.	16cc#\JJ
!	!LO:SIC:o:s=:v:4\right
8A\J 8e\ 8g\	4aa\
*rep	*
8AA\L 8A\	.
8A\J 8e\ 8g\	8a/L
*Xrep	*
*rep	*
8AA\L 8A\	8b\
8A\J 8e\ 8g\	8cc#\J
*Xrep	*
=8	=8
!	!LO:SIC:o:s=:v:8\right
8d\L 8f#\	8dd\L
8A\J	8ff#\J
!	!LO:SIC:o:s=:v:8\right
!	!LO:SIC:o:s=:v:16\right : grupa
8c#\L 8e\ 8g\	16aa\LL
.	16gg\
8A\J	16ee\
.	16cc#\JJ
!	!LO:SIC:o:s=:v:4\right
!	!LO:SIC:o:s=:v:4\right
4d\ 4f#\	4dd\
=9||	=9||
!	!LO:SIC:o:s=:v:wszystkie caudy w dół po prawej stronie takt 9 do końca global
8c#\L 8e\	8ee\L
8A\J	16ee\L
.	16ff#\JJ
*rep	*
8c#\L 8e\	8gg\L
8A\J	16ff#\L
*Xrep	*
.	16gg\JJ
*rep	*
8c#\L 8e\	16aa\LL
.	16gg\
8A\J	16ff#\
*Xrep	*
.	16ee\JJ
!!LO:LB:g=original
=10	=10
!	!LO:SIC:o:s=:v:wszystkie caudy w dół po prawej stronie tak 10 do końca global
8d\L 8f#\	16ee\LL
.	16ff#\
8A\J	16cc#\
.	16dd\JJ
*rep	*
8d\L 8f#\	4.dd\T
8A\J	.
*Xrep	*
*rep	*
8d\L 8f#\	.
8A\J	16ff#\LL
.	16dd\JJ
*Xrep	*
=11	=11
8c#\L 8g\	8cc#\L
8A\J	16cc#\L
.	16b\JJ
*rep	*
8c#\L 8g\	16a/LL
.	16b\
8A\J	16cc#\
*Xrep	*
.	16dd\JJ
*rep	*
8c#\L 8g\	8ee\L
8A\J	8cc#\J
*Xrep	*
=12	=12
.	8qee/
8d\L 8f#\	16dd\LL
.	16cc#\
8A\J	16dd\
.	16ee\JJ
*rep	*
.	8qgg/
8d\L 8f#\	16ff#\LL
.	16dd\
8A\J	16ff#\
*Xrep	*
.	16gg\JJ
*rep	*
8d\L 8f#\	8.aa\L
8A\J	.
.	16ff#\Jk
*Xrep	*
=13	=13
8AA\L 8A\	16ee\LL
.	16ff#\
8A\J 8cn\ 8e\ 8g\	16ee\
.	16dd#X\JJ
8A\L 8c\ 8e\	16ee\LL
.	16ff#\
8A\J 8c\ 8e\	16ee\
.	16dd#\JJ
*rep	*
8A\L 8c\ 8e\	16ee\LL
.	16gg\
8A\J 8c\ 8e\	16ff#\
*Xrep	*
.	16ee\JJ
!!LO:LB:g=original
=14	=14
8D\L	8ff#\L
8A\J 8d\	16ff#\L
.	16ee\JJ
*rep	*
8D\L	8dd\L
8A\J 8d\	16dd\L
*Xrep	*
.	16cc#\JJ
*rep	*
8D\L	16dd\LL
.	16ff#\
8A\J 8d\	16aa\
*Xrep	*
.	16ff#\JJ
=15	=15
8E\L 8G#X\ 8B\	8gg#X\L
8E\J 8G#\ 8B\	16gg#\L
.	16ff#\JJ
*rep	*
8E\L 8G#\ 8B\	16ee\LL
.	16ff#\
8E\J 8G#\ 8B\	16gg#\
*Xrep	*
.	16aa\JJ
*rep	*
8E\L 8G#\ 8B\	8.bb\L
8E\J 8G#\ 8B\	.
.	16gg#\Jk
*Xrep	*
=16	=16
4E\ 4A\ 4c#\	8.aa\L
.	16gg#X\Jk
4AA/	16aa\LL
.	16bb\
.	16ggn\
.	16ee\JJ
4r	16dd\LL
.	16cc#\
.	16b\
.	16a/JJ
!LO:TX:a:t=Polonez Da Capo	!
!!LO:LB:g=original
=17||	=17||
*k[f#]	*k[f#]
*M3/4	*M3/4
!	!LO:TX:a:t=Trio
8G\L 8B\	4.gg\
8d\J	.
*rep	*
8G\L 8B\	.
8d\J	8dd\
*Xrep	*
*rep	*
8G\L 8B\	16b\LL
.	16dd\J
!	!LO:TX:a:t=a
8d\J	8dd\J
*Xrep	*
=18	=18
*rep	*
8G\L 8B\	8gg\L
8d\J	8dd\J
*Xrep	*
*rep	*
8G\L 8B\	4.bb\
8d\J	.
*Xrep	*
*rep	*
8G\L 8B\	.
8d\J	16aa\LL
.	16gg\JJ
*Xrep	*
=19	=19
8A\L 8c\	16gg\LL
.	16aa\J
8d\J	8aa\TJ
*rep	*
8A\L 8c\	8ccc\L
8d\J	8dd\J
*Xrep	*
*rep	*
8A\L 8c\	8ee\L
8d\J	8ff#\J
*Xrep	*
=20	=20
8G\L 8B\	8gg\L
8d\J	8bb\J
8A\L 8c\	16dd\LL
.	16ccc\
8d\J	16aa\
.	16ff#\JJ
4G\ 4B\	4gg\
!!LO:PB:g=original
=21||	=21||
b8BB\L 8D#X\ 8F#\	4.b\ 4.dd#X\ 4.ff#\
8B\J	.
*rep	*
8BB/L 8D#/ 8F#/	.
8B\J	16dd#X\LL
*Xrep	*
.	16b\JJ
*rep	*
8BB/L 8D#/ 8F#/	8bb\L
8B\J	8aa\J
*Xrep	*
=22	=22
8E\L 8G\	16aa\LL
.	16gg\
8B\J	16ff#\
.	16gg\JJ
*rep	*
8E\L 8G\	4ee\
8B\J	.
*Xrep	*
*rep	*
8E\L 8G\	16ee\LL
.	16gg\
8B\J	16ff#\
.	16ee\JJ
*Xrep	*
=23	=23
8AA/L 8C#X/ 8E/	16ddn\LL
.	16cc#X\JJ
8A\J	4cc#\
*rep	*
8AA/L 8C#/ 8E/	.
8A\J	8a\L
*Xrep	*
*rep	*
8AA/L 8C#/ 8E/	8aa\
8A\J	8gg\J
*Xrep	*
=24	=24
8D\L 8F#\	16ff#\LL
.	16gg\
8A\J	16aa\
.	16gg\JJ
8AA\L	16ff#\LL
.	16gg\
8E\J 8G\	16ee\
.	16ff#\JJ
4D\ 4F#\	4dd\
!LO:TX:a:t=Trio Da Capo	!
==	==
*-	*-
!!!system-decoration: (s1,s2)
!!!EED: Leszek Kubiak
!!!EEV: 2020-11-24
!!!ENC: Anastazja Marusiak
!!!END: 2020-06-15
